src/img/header/heart.svg

<svg width="20" height="20" viewBox="0 0 20 20" fill="none" xmlns="http://www.w3.org/2000/svg">
<g clip-path="url(#clip0)">
<path d="M9.99996 3.435L9.10371 2.51375C6.99996 0.35125 3.14246 1.0975 1.74996 3.81625C1.09621 5.095 0.94871 6.94125 2.14246 9.2975C3.29246 11.5663 5.68496 14.2838 9.99996 17.2438C14.315 14.2838 16.7062 11.5663 17.8575 9.2975C19.0512 6.94 18.905 5.095 18.25 3.81625C16.8575 1.0975 13 0.35 10.8962 2.5125L9.99996 3.435ZM9.99996 18.75C-9.16629 6.085 4.09871 -3.8 9.77996 1.42875C9.85496 1.4975 9.92871 1.56875 9.99996 1.6425C10.0705 1.56882 10.1439 1.49793 10.22 1.43C15.9 -3.8025 29.1662 6.08375 9.99996 18.75Z" fill="#232F3E"/>
</g>
<defs>
<clipPath id="clip0">
<rect width="20" height="20" fill="white"/>
</clipPath>
</defs>
</svg>

<svg width="20" height="20" fill="none" xmlns="http://www.w3.org/2000/svg"><g clip-path="url(#clip0)"><path d="M10 3.435l-.896-.921C7 .35 3.142 1.098 1.75 3.816c-.654 1.279-.801 3.125.392 5.481 1.15 2.27 3.543 4.987 7.858 7.947 4.315-2.96 6.706-5.678 7.858-7.947 1.193-2.357 1.047-4.202.392-5.48C16.858 1.096 13 .35 10.896 2.512L10 3.435zm0 15.315C-9.166 6.085 4.099-3.8 9.78 1.429c.075.069.149.14.22.214.07-.074.144-.145.22-.213C15.9-3.802 29.166 6.084 10 18.75z" fill="#232F3E"/></g><defs><clipPath id="clip0"><path fill="#fff" d="M0 0h20v20H0z"/></clipPath></defs></svg>
